X: 14
T: GARRYOWEN
R: jig
Z: 2006 John Chambers <jc@trillian.mit.edu>
B: "Rinnci na h-\'Eireann" Elizabeth Burchenal, ed. G.Schirmer (1925) p.100
M: 6/8
L: 1/8
Q: 3/8=126
%%slurgraces 1
K: G
   gf | "G"edc BAG |   B>cB    Bgf |    edc BAG | "D7"ABA Agf \
      | "G"edc BAG |   B>cB    B2d |    def gdB | "D"A>BA A  :|
|: Bc | "G"d2B d2B |    d2B    d2g | "C"e2c e2f |     e2c e2f \
      | "G"g2a b2a | "C"gfe "G"d2B |    def gdB | "D"A>BA A  :|

%%sep 2 1 500

